app/dist/common/images/netone-systems-co-ltd.svg

<svg height="18" viewBox="0 0 18 18" width="18" xmlns="http://www.w3.org/2000/svg"><path d="m0 0h18v18h-18z" fill="#f0f3fa"/><path d="m14.39 8h-4.66c-1.56 0-2.16 1.4-2.16 2.25v1.32h-.43c-.51 0-.71-.2-.71-.73v-3.66c0-.53.2-.75.71-.75h2.86v-1.43h-2.86c-1.3 0-2.14.83-2.14 2.18v3.64c0 1.35.84 2.18 2.14 2.18h2.36c1.3 0 2.51-.83 2.51-2.18v-1.25h2.39c.33 0 .6-.4.61-.7 0-.25-.34-.87-.61-.87zm-3.96 2.85c0 .53-.43.72-.94.72h-.49v-1.27a.7.7 0 0 1 .73-.72h.7v1.28z" fill="#185aa5"/></svg>

<!-- by TradingView --><svg width="18" height="18" viewBox="0 0 18 18" xmlns="http://www.w3.org/2000/svg"><path fill="#F0F3FA" d="M0 0h18v18H0z"/><path d="M14.39 8H9.73c-1.56 0-2.16 1.4-2.16 2.25v1.32h-.43c-.51 0-.71-.2-.71-.73V7.18c0-.53.2-.75.71-.75H10V5H7.14C5.84 5 5 5.83 5 7.18v3.64C5 12.17 5.84 13 7.14 13H9.5c1.3 0 2.51-.83 2.51-2.18V9.57h2.39c.33 0 .6-.4.61-.7 0-.25-.34-.87-.61-.87Zm-3.96 2.85c0 .53-.43.72-.94.72H9V10.3a.7.7 0 0 1 .73-.72h.7v1.28Z" fill="#185AA5"/></svg>
